X:3607
T:Cuckoo Solo. JNu.01
M:4/4
L:1/16
Q:200
S:James Nuttall MS,c1830?,Rossendale,East Lancs.
R:Air
O:England
A:East Lancashire
Z:vmp.Chris Partington
K:A
|A4E2G2 A4A,4z2A2|B2cd e3d cBA2z2e2|
E2e2 E2d2 E2c2z2e2|Edcd Edcd E2c2z2E2|
EFGA B2c2 d2c2 z2B2|ABcd e2a2 a2g2z2a2|
b2dc d2b2 d2cB c2a2|c2BA d2c2 c2B2 e3d|
ceee Beee ceee Aeee|dfff cfff dfff Bfff|
Aaaa Baaa caaa Baaa|AaAa BaBa caca BaBa|
Aagf edcB ABcd e2a2|gfge f3e e4e4:|
|:a2gf edcB "qu"A4z2E2|A2GF EDCB,A,4z2e2|eaga eaga eaga eaga|
ebab ebab ebab ebab|ec'bc' ec'bc' ec'bc' ec'bc'|
ed'c'd' ed'c'd' ed'c'd' ed'c'd' |
ee'e'e' e'e'e'e' ge'e'e' e'e'e'e'|ee'e'e' e'e'e'e' ge'e'e' e'e'e'e'|
ee'e'e' e'e'e'e' ge'e'e' e'e'e'e'|ee'e'e' e'e'e'e' ge'e'e' e'e'e'e'|
ee'e'e' fe'e'e' ge'e'e' fe'e'e'|ee'e'e' fe'e'e' ge'e'e' fe'e'e'|
ee'e'e' fe'e'e' ge'e'e' fe'e'e'|ee'e'e' fe'e'e' ge'e'e' fe'e'e'|
ee'ee' fe'fe' ge'ge' fe'fe'|ee'ee' fe'fe' ge'ge' fe'fe'|
ee'ee' fe'fe' ge'ge' fe'fe'|ee'ee' fe'fe' ge'ge' fe'fe'|
ee'fe' ge'fe' ee'fe' ge'fe'|ee'fe' ge'fe' ee'fe' ge'fe'|
ee'fe' ge'fe' ee'fe' ge'fe'|ee'fe' ge'fe' ee'fe' ge'fe'|
ge'fe' ge'fe' ge'fe' ge'ee'|ge'fe' ge'ee' ge'fe' ge'ee'|
ge'fe' ge'fe' ge'fe' ge'ee'|ge'fe' ge'ee' ge'fe' ge'ee'|
e'2d'c' b2a2 c'2b2z2g2|a2gf f2a2 gfe2z2e2|
ceBe AeBe ceBe AeBe|ceBe AeBe ceBe AeBe|
dece deBe ceBe ceAe|dece deBe ceBe ceAe|
dcBc dcBA B2E2z2B2|EFGA B2c2 d2c2z2B2|
ABcd e2a2 a2g2z2f2|e4d4c2G2 A2d2|c4~B4A4z2E2|
EFGA B2c2 d2c2z2B2|ABcd e2a2 a2g2z2f2|e4d4c2E2A2d2|cdef c2B2A8|]


